src/assets/images/logo-colorful.svg

<svg fill="none" height="144" viewBox="0 0 143 144" width="143" xmlns="http://www.w3.org/2000/svg" xmlns:xlink="http://www.w3.org/1999/xlink"><linearGradient id="a"><stop offset="0" stop-color="#1c25ff"/><stop offset="1" stop-color="#db00ff"/></linearGradient><linearGradient id="b" gradientUnits="userSpaceOnUse" x1="-.391609" x2="94.8599" xlink:href="#a" y1="3" y2="36.5959"/><linearGradient id="c" gradientUnits="userSpaceOnUse" x1="52.5664" x2="155.454" xlink:href="#a" y1="3" y2="43.1771"/><linearGradient id="d" gradientUnits="userSpaceOnUse" x1="114.804" x2="166.739" xlink:href="#a" y1="3" y2="12.159"/><path d="m48.192 38.608v45.888c0 7.104-2.016 12.576-6.048 16.416-3.968 3.84-9.344 5.76-16.128 5.76-7.104 0-12.8-2.016-17.088-6.048s-6.432-9.76-6.432-17.184h16.32c0 2.816.576 4.96 1.728 6.432 1.152 1.408 2.816 2.112 4.992 2.112 1.984 0 3.52-.64 4.608-1.92s1.632-3.136 1.632-5.568v-45.888z" fill="url(#b)"/><path d="m83.336 106.768c-5.248 0-9.984-1.12-14.208-3.36-4.16-2.24-7.456-5.44-9.888-9.6-2.368-4.16-3.552-9.024-3.552-14.592 0-5.504 1.216-10.336 3.648-14.496 2.432-4.224 5.76-7.456 9.984-9.696s8.96-3.36 14.208-3.36 9.984 1.12 14.208 3.36 7.552 5.472 9.984 9.696c2.432 4.16 3.648 8.992 3.648 14.496s-1.248 10.368-3.744 14.592c-2.432 4.16-5.792 7.36-10.08 9.6-4.224 2.24-8.96 3.36-14.208 3.36zm0-14.208c3.136 0 5.792-1.152 7.968-3.456 2.24-2.304 3.36-5.6 3.36-9.888s-1.088-7.584-3.264-9.888c-2.112-2.304-4.736-3.456-7.872-3.456-3.2 0-5.856 1.152-7.968 3.456-2.112 2.24-3.168 5.536-3.168 9.888 0 4.288 1.024 7.584 3.072 9.888 2.112 2.304 4.736 3.456 7.872 3.456z" fill="url(#c)"/><path d="m128.632 106.768c-2.88 0-5.248-.832-7.104-2.496-1.792-1.728-2.688-3.84-2.688-6.336 0-2.56.896-4.704 2.688-6.432 1.856-1.728 4.224-2.592 7.104-2.592 2.816 0 5.12.864 6.912 2.592 1.856 1.728 2.784 3.872 2.784 6.432 0 2.496-.928 4.608-2.784 6.336-1.792 1.664-4.096 2.496-6.912 2.496z" fill="url(#d)"/></svg>

<svg width="143" height="144" viewBox="0 0 143 144" fill="none" xmlns="http://www.w3.org/2000/svg">
<path d="M48.192 38.608V84.496C48.192 91.6 46.176 97.072 42.144 100.912C38.176 104.752 32.8 106.672 26.016 106.672C18.912 106.672 13.216 104.656 8.928 100.624C4.64 96.592 2.496 90.864 2.496 83.44H18.816C18.816 86.256 19.392 88.4 20.544 89.872C21.696 91.28 23.36 91.984 25.536 91.984C27.52 91.984 29.056 91.344 30.144 90.064C31.232 88.784 31.776 86.928 31.776 84.496V38.608H48.192Z" fill="url(#paint0_linear_6_4)"/>
<path d="M83.336 106.768C78.088 106.768 73.352 105.648 69.128 103.408C64.968 101.168 61.672 97.968 59.24 93.808C56.872 89.648 55.688 84.784 55.688 79.216C55.688 73.712 56.904 68.88 59.336 64.72C61.768 60.496 65.096 57.264 69.32 55.024C73.544 52.784 78.28 51.664 83.528 51.664C88.776 51.664 93.512 52.784 97.736 55.024C101.96 57.264 105.288 60.496 107.72 64.72C110.152 68.88 111.368 73.712 111.368 79.216C111.368 84.72 110.12 89.584 107.624 93.808C105.192 97.968 101.832 101.168 97.544 103.408C93.32 105.648 88.584 106.768 83.336 106.768ZM83.336 92.56C86.472 92.56 89.128 91.408 91.304 89.104C93.544 86.8 94.664 83.504 94.664 79.216C94.664 74.928 93.576 71.632 91.4 69.328C89.288 67.024 86.664 65.872 83.528 65.872C80.328 65.872 77.672 67.024 75.56 69.328C73.448 71.568 72.392 74.864 72.392 79.216C72.392 83.504 73.416 86.8 75.464 89.104C77.576 91.408 80.2 92.56 83.336 92.56Z" fill="url(#paint1_linear_6_4)"/>
<path d="M128.632 106.768C125.752 106.768 123.384 105.936 121.528 104.272C119.736 102.544 118.84 100.432 118.84 97.936C118.84 95.376 119.736 93.232 121.528 91.504C123.384 89.776 125.752 88.912 128.632 88.912C131.448 88.912 133.752 89.776 135.544 91.504C137.4 93.232 138.328 95.376 138.328 97.936C138.328 100.432 137.4 102.544 135.544 104.272C133.752 105.936 131.448 106.768 128.632 106.768Z" fill="url(#paint2_linear_6_4)"/>
<defs>
<linearGradient id="paint0_linear_6_4" x1="-0.391609" y1="3" x2="94.8599" y2="36.5959" gradientUnits="userSpaceOnUse">
<stop stop-color="#1C25FF"/>
<stop offset="1" stop-color="#DB00FF"/>
</linearGradient>
<linearGradient id="paint1_linear_6_4" x1="52.5664" y1="3" x2="155.454" y2="43.1771" gradientUnits="userSpaceOnUse">
<stop stop-color="#1C25FF"/>
<stop offset="1" stop-color="#DB00FF"/>
</linearGradient>
<linearGradient id="paint2_linear_6_4" x1="114.804" y1="3" x2="166.739" y2="12.159" gradientUnits="userSpaceOnUse">
<stop stop-color="#1C25FF"/>
<stop offset="1" stop-color="#DB00FF"/>
</linearGradient>
</defs>
</svg>
